!!!COM: Bach, Johann Sebastian
!!!OPR: Joh. Seb. Bachs vierstimmige Choralgesänge
!!!XEN: Four-part Chorales
!!!OTL: Chorale 60. Für Freuden lasst uns springen
!!!SCT: BWV 313
!!!SCA: Thematisch-systematisches Verzeichnis der musikalischen Werke Johann Sebastian Bach: Bach-Werke-Verzeichnis (Schmieder)
!!!YOR: Bach Gesellschaft Edition xxxix
!!!ENC: Steven Rasmussen
!!!CDT: 1685/3//-1750/7/28/
!!!OCY: Deutschland
!!!YEC: Copyright (c) 1994, 2000 Center for Computer Assisted Research in the Humanities
!!!YEM: Rights to all derivative editions reserved
!!!YEN: United States of America
**kern	**kern	**kern	**kern	**silbe
*I:[BASSO]	*I:[TENORE]	*I:[ALTO]	*I:[SOPRANO]	*I:[SOPRANO]
*>[A,A,B]	*>[A,A,B]	*>[A,A,B]	*>[A,A,B]	*
*>A	*>A	*>A	*>A	*
*clefF4	*clefGv2	*clefG2	*clefG2	*
*k[b-e-]	*k[b-e-]	*k[b-e-]	*k[b-e-]	*
*g:	*g:	*g:	*g:	*
*M4/4	*M4/4	*M4/4	*M4/4	*
8GGL	8B-L	8gL	4dd	FürMit
8AAJ	8cJ	8f#J	.	.
=1	=1	=1	=1	=1
8BB-L	8dL	4g	4dd	Freu-Mund
8CJ	16cL	.	.	.
.	16B-JJ	.	.	.
8DL	4A	8f#L	4dd	-denund
8EnJ	.	8gJ	.	.
8F#L	8AL	(8a	4dd	lasstHer-
8GJ	8B-J	4g)	.	.
8AL	8cL	.	4cc	uns-zen
8DJ	8dJ	8f#	.	.
=2	=2	=2	=2	=2
8GL	2d	8gL	2b-	sprin-sin-
8A	.	8f#J	.	.
8B-	.	4g	.	.
8cJ	.	.	.	.
4d;	4d;	4f#;	4a;	-gen,-gen,
8B-L	8dL	4fn	4dd	ihrdenn
8AJ	8cJ	.	.	.
=3	=3	=3	=3	=3
8GL	4B-	4g	8ddL	Chri-Christ
8FJ	.	.	8ee-J	.
8E-L	4B-	4f	4ff	-stenvom
8DJ	.	.	.	.
8CL	8B-L	4.cc	4ee-	all-Him-
8FJ	16AL	.	.	.
.	16GJJ	.	.	.
8BB-L	8FL	.	4dd	-zu--mel-
8DJ	8fJ	8b-	.	.
=4	=4	=4	=4	=4
8E-L	4g	4b-	2cc	-glei--rei-
8CJ	.	.	.	.
4F	4f	4a	.	.
4BB-;	4f;	4b-;	4dd;	-che!-che
=:|!	=:|!	=:|!	=:|!	=:|!
*>B	*>B	*>B	*>B	*
4BB-	4f	8b-L	4dd	von
.	.	8aJ	.	.
=5	=5	=5	=5	=5
4.C	8e-L	4g	4cc	ei-
.	8dJ	.	.	.
.	4en	4g	4b-	-ner
8C#	.	.	.	.
4D	8AL	8gL	4a	Jung-
.	16dL	8f#J	.	.
.	16cJJ	.	.	.
8E-L	8B-L	4g	4g	-frau
8EnJ	16cL	.	.	.
.	16B-JJ	.	.	.
=6	=6	=6	=6	=6
8FL	8AL	8cL	4a	ist
8F#J	16dL	8aJ	.	.
.	16cJJ	.	.	.
8GL	16B-LL	8dL	4b-	ge-
.	16AJ	.	.	.
8C#J	8GJ	8enJ	.	.
4D;	4d;	4f#;	4a;	-bor'n,
4F#	4d	4a	4dd	wer
=7	=7	=7	=7	=7
8GL	4d	4a	4b-	hat
8FJ	.	.	.	.
8E-L	8e-L	8gL	4b-	zu-
8DJ	8fJ	8fJ	.	.
4.C	4g	8fL	4cc	-vor
.	.	8e-J	.	.
.	8fL	8a-L	4dd	ge-
8BBn	8dJ	8gJ	.	.
=8	=8	=8	=8	=8
(8C	8dL	4g	4ee-	-hört
4c)	8cJ	.	.	.
.	8dL	4g	4dd	von
8B-	8enJ	.	.	.
8AL	8f#L	4a	4cc	sol-
8GJ	8AJ	.	.	.
8F#L	8dL	8aL	4cc	-chen
8AJ	8e-J	8gJ	.	.
=9	=9	=9	=9	=9
2D	8dL	8f#	4.dd	Din-
.	16cL	4g	.	.
.	16B-J	.	.	.
.	8A	.	.	.
.	8dJ	8f#	8cc	.
4G;	4d;	4g;	4bn;	-gen?
==|!	==|!	==|!	==|!	==|!
*-	*-	*-	*-	*-
!!!RWG: Key is interpreted using the Humdrum key tool.
!!!URL-pdf: https://s9.imslp.org/files/imglnks/usimg/6/6b/IMSLP24489-PMLP09471-CCARH_Bach_Chorales.pdf#page=42 Musedata edition
!!!URL-pdf: https://s9.imslp.org/files/imglnks/usimg/7/7a/IMSLP04155-Bach_-_BGA_253-438.pdf#page=32 	Bach-Gesellschaft Ausgabe, Band 39 (pp.175-276) Leipzig: Breitkopf und Härtel, 1892. Plate B.W. XXXIX.
!!!END: 1994/05/25
!!!EMD: Converted from MuseData to Humdrum Dec 19, 2000, by Andreas Kornstaedt using muse2kern.
!!!EED: Craig Stuart Sapp
!!!EEV: 2024/03/31
!!!filter-keyboard: satb2gs
!!!title: @{OTL} (@{SCT})
